X:1
T:Title
%%score { 1 | 2 }
L:1/8
Q:1/4=184
M:3/2
K:Bb
V:1 treble nm="Grand Piano"
V:2 bass 
V:1
 B4 | B8 A4 | G8 F4 | B8 c4 | d8 d4 | d8 d4 | c8 B4 | e8 d4 | c8 B4 | c8 d4 | c8 B4 | G8 A4 | %12
 B8 f4 | d6 c2 B4 | c4 d4 e4 | d8 c2 B2 |[M:2/2] B8 |] %17
V:2
 B,,4 | D,8 F,4 | G,8 D,4 | G,,8 F,,4 | B,,8 B,,4 | D,4 C,4 B,,4 | F,4 E,4 D,4 | C,4 A,,4 B,,4 | %8
 F,8 G,4 | A,4 F,4 B,,4 | F,4 E,4 D,4 | E,4 C,4 F,4 | B,,8 A,,4 | B,,4 A,,4 G,,4 | F,,8 E,4 | %15
 D,4 E,4 F,4 |[M:2/2] B,,8 |] %17

